svg/color/amon.svg

<?xml version="1.0" encoding="UTF-8" ?>
<!DOCTYPE svg PUBLIC "-//W3C//DTD SVG 1.1//EN" "http://www.w3.org/Graphics/SVG/1.1/DTD/svg11.dtd">
<svg width="250pt" height="250pt" viewBox="0 0 250 250" version="1.1" xmlns="http://www.w3.org/2000/svg">
<g id="#ffffffff">
<path fill="#ffffff" opacity="1.00" d=" M 0.00 0.00 L 250.00 0.00 L 250.00 250.00 L 0.00 250.00 L 0.00 0.00 M 106.98 52.10 C 89.53 56.15 73.96 67.02 63.66 81.61 C 49.11 101.67 45.99 129.09 54.89 152.11 C 62.13 171.20 77.62 186.95 96.57 194.52 C 110.57 200.20 126.28 201.36 141.03 198.22 C 159.39 194.27 176.00 183.07 186.76 167.70 C 195.73 155.01 200.46 139.44 200.37 123.92 C 200.37 99.21 200.36 74.49 200.31 49.78 C 175.89 49.75 151.46 49.79 127.03 49.79 C 120.31 50.16 113.51 50.34 106.98 52.10 Z" />
<path fill="#ffffff" opacity="1.00" d=" M 115.70 86.61 C 127.99 83.55 141.73 87.38 150.60 96.43 C 157.65 103.30 161.56 113.13 161.52 122.94 C 161.54 135.22 161.50 147.50 161.50 159.79 C 148.98 159.81 136.46 159.83 123.95 159.80 C 111.94 159.93 100.15 153.57 93.51 143.59 C 85.23 131.53 85.10 114.50 93.24 102.33 C 98.36 94.48 106.56 88.70 115.70 86.61 M 109.63 119.42 C 107.50 127.32 112.93 136.32 121.09 137.63 C 126.98 138.13 132.91 137.74 138.82 137.87 C 138.80 132.57 138.93 127.27 138.77 121.98 C 138.66 115.15 132.82 109.03 126.08 108.34 C 118.78 107.13 111.27 112.23 109.63 119.42 Z" />
</g>
<g id="#ddbd88ff">
<path fill="#ddbd88" opacity="1.00" d=" M 106.98 52.10 C 113.51 50.34 120.31 50.16 127.03 49.79 C 151.46 49.79 175.89 49.75 200.31 49.78 C 200.36 74.49 200.37 99.21 200.37 123.92 C 200.46 139.44 195.73 155.01 186.76 167.70 C 176.00 183.07 159.39 194.27 141.03 198.22 C 126.28 201.36 110.57 200.20 96.57 194.52 C 77.62 186.95 62.13 171.20 54.89 152.11 C 45.99 129.09 49.11 101.67 63.66 81.61 C 73.96 67.02 89.53 56.15 106.98 52.10 M 115.70 86.61 C 106.56 88.70 98.36 94.48 93.24 102.33 C 85.10 114.50 85.23 131.53 93.51 143.59 C 100.15 153.57 111.94 159.93 123.95 159.80 C 136.46 159.83 148.98 159.81 161.50 159.79 C 161.50 147.50 161.54 135.22 161.52 122.94 C 161.56 113.13 157.65 103.30 150.60 96.43 C 141.73 87.38 127.99 83.55 115.70 86.61 Z" />
<path fill="#ddbd88" opacity="1.00" d=" M 109.63 119.42 C 111.27 112.23 118.78 107.13 126.08 108.34 C 132.82 109.03 138.66 115.15 138.77 121.98 C 138.93 127.27 138.80 132.57 138.82 137.87 C 132.91 137.74 126.98 138.13 121.09 137.63 C 112.93 136.32 107.50 127.32 109.63 119.42 Z" />
</g>
</svg>

<?xml version="1.0" encoding="utf-8"?>
<!-- Generator: Adobe Illustrator 26.0.3, SVG Export Plug-In . SVG Version: 6.00 Build 0)  -->
<svg version="1.1" id="Layer_1" xmlns="http://www.w3.org/2000/svg" xmlns:xlink="http://www.w3.org/1999/xlink" x="0px" y="0px"
	 viewBox="0 0 250 250" style="enable-background:new 0 0 250 250;" xml:space="preserve">
<style type="text/css">
	.st0{fill:#FFFFFF;}
	.st1{fill:#DDBD88;}
</style>
<circle class="st0" cx="124" cy="124.5" r="125"/>
<g id="_x23_ffffffff">
	<path class="st0" d="M115.7,86.6c12.3-3.1,26,0.8,34.9,9.8c7,6.9,11,16.7,10.9,26.5c0,12.3,0,24.6,0,36.8c-12.5,0-25,0-37.6,0
		c-12,0.1-23.8-6.2-30.4-16.2c-8.3-12.1-8.4-29.1-0.3-41.3C98.4,94.5,106.6,88.7,115.7,86.6 M109.6,119.4
		c-2.1,7.9,3.3,16.9,11.5,18.2c5.9,0.5,11.8,0.1,17.7,0.2c0-5.3,0.1-10.6-0.1-15.9c-0.1-6.8-5.9-13-12.7-13.6
		C118.8,107.1,111.3,112.2,109.6,119.4z"/>
</g>
<g id="_x23_ddbd88ff">
	<path class="st1" d="M107,52.1c6.5-1.8,13.3-1.9,20-2.3c24.4,0,48.9,0,73.3,0c0.1,24.7,0.1,49.4,0.1,74.1
		c0.1,15.5-4.6,31.1-13.6,43.8c-10.8,15.4-27.4,26.6-45.7,30.5c-14.8,3.1-30.5,2-44.5-3.7c-18.9-7.6-34.4-23.3-41.7-42.4
		c-8.9-23-5.8-50.4,8.8-70.5C74,67,89.5,56.2,107,52.1 M115.7,86.6c-9.1,2.1-17.3,7.9-22.5,15.7c-8.1,12.2-8,29.2,0.3,41.3
		c6.6,10,18.4,16.3,30.4,16.2c12.5,0,25,0,37.6,0c0-12.3,0-24.6,0-36.8c0-9.8-3.9-19.6-10.9-26.5C141.7,87.4,128,83.6,115.7,86.6z"
		/>
	<path class="st1" d="M109.6,119.4c1.6-7.2,9.2-12.3,16.5-11.1c6.7,0.7,12.6,6.8,12.7,13.6c0.2,5.3,0,10.6,0.1,15.9
		c-5.9-0.1-11.8,0.3-17.7-0.2C112.9,136.3,107.5,127.3,109.6,119.4z"/>
</g>
</svg>
